public/projects.svg

<svg width="2309" height="570" fill="none" xmlns="http://www.w3.org/2000/svg"><path d="M.95 450V24.86h167.732c32.245 0 59.716 6.158 82.412 18.475 22.697 12.178 39.996 29.131 51.897 50.859 12.04 21.589 18.061 46.5 18.061 74.732s-6.09 53.142-18.268 74.731c-12.179 21.59-29.824 38.404-52.935 50.444-22.973 12.04-50.79 18.061-83.451 18.061H59.491v-72.034h92.376c17.299 0 31.554-2.975 42.763-8.926 11.349-6.089 19.79-14.462 25.326-25.118 5.674-10.795 8.511-23.181 8.511-37.158 0-14.116-2.837-26.433-8.511-36.951-5.536-10.656-13.977-18.89-25.326-24.703-11.348-5.951-25.741-8.926-43.178-8.926H90.836V450H.951Zm376.825 0V131.145h85.734v55.633h3.321c5.813-19.79 15.569-34.736 29.27-44.839 13.701-10.241 29.478-15.361 47.33-15.361 4.429 0 9.203.277 14.324.83 5.12.554 9.618 1.315 13.493 2.284v78.468c-4.152-1.246-9.895-2.353-17.23-3.322-7.335-.968-14.047-1.453-20.136-1.453-13.009 0-24.634 2.837-34.875 8.511-10.102 5.536-18.129 13.286-24.08 23.25-5.812 9.965-8.719 21.451-8.719 34.46V450h-88.432Zm368.417 6.228c-32.245 0-60.131-6.851-83.658-20.552-23.388-13.839-41.448-33.075-54.181-57.709-12.732-24.772-19.098-53.489-19.098-86.149 0-32.937 6.366-61.723 19.098-86.357 12.733-24.772 30.793-44.008 54.181-57.709 23.527-13.839 51.413-20.759 83.658-20.759 32.245 0 60.062 6.92 83.45 20.759 23.527 13.701 41.656 32.937 54.388 57.709 12.732 24.634 19.099 53.42 19.099 86.357 0 32.66-6.367 61.377-19.099 86.149-12.732 24.634-30.861 43.87-54.388 57.709-23.388 13.701-51.205 20.552-83.45 20.552Zm.415-68.504c14.67 0 26.917-4.152 36.743-12.456 9.826-8.442 17.23-19.928 22.212-34.459 5.121-14.532 7.681-31.069 7.681-49.614 0-18.544-2.56-35.082-7.681-49.613-4.982-14.532-12.386-26.018-22.212-34.46s-22.073-12.663-36.743-12.663c-14.808 0-27.263 4.221-37.366 12.663-9.964 8.442-17.506 19.928-22.627 34.46-4.982 14.531-7.473 31.069-7.473 49.613 0 18.545 2.491 35.082 7.473 49.614 5.121 14.531 12.663 26.017 22.627 34.459 10.103 8.304 22.558 12.456 37.366 12.456ZM960.63 131.145h88.43v334.632c0 24.633-4.84 44.562-14.53 59.785-9.69 15.223-23.59 26.364-41.723 33.422-17.991 7.058-39.511 10.587-64.56 10.587-3.045 0-5.951-.069-8.719-.208-2.906 0-5.951-.069-9.134-.207v-69.127c2.353.138 4.429.207 6.228.207 1.66.139 3.46.208 5.397.208 14.254 0 24.219-3.045 29.893-9.134 5.812-5.951 8.718-14.946 8.718-26.986V131.145Zm44.01-41.103c-13.01 0-24.22-4.36-33.63-13.078-9.411-8.857-14.116-19.444-14.116-31.76 0-12.18 4.705-22.628 14.116-31.347C980.42 5 991.63.572 1004.64.572c13.28 0 24.56 4.428 33.84 13.285 9.41 8.72 14.11 19.168 14.11 31.346 0 12.317-4.7 22.904-14.11 31.761-9.28 8.719-20.56 13.078-33.84 13.078Zm260.57 366.186c-32.79 0-61.03-6.643-84.69-19.929-23.53-13.424-41.66-32.384-54.39-56.879-12.73-24.634-19.1-53.765-19.1-87.395 0-32.798 6.37-61.584 19.1-86.356 12.73-24.772 30.65-44.078 53.77-57.917 23.25-13.839 50.51-20.759 81.79-20.759 21.03 0 40.61 3.391 58.74 10.172 18.27 6.643 34.19 16.676 47.75 30.1 13.7 13.424 24.35 30.308 31.97 50.652 7.61 20.205 11.41 43.87 11.41 70.995v24.287h-269.24v-54.803h186c0-12.732-2.77-24.011-8.3-33.837-5.54-9.826-13.22-17.506-23.04-23.042-9.69-5.674-20.97-8.511-33.84-8.511-13.43 0-25.33 3.114-35.71 9.341-10.24 6.09-18.26 14.324-24.08 24.703-5.81 10.241-8.79 21.659-8.92 34.252v52.105c0 15.777 2.9 29.408 8.72 40.895 5.95 11.486 14.32 20.344 25.11 26.571 10.8 6.228 23.6 9.342 38.41 9.342 9.82 0 18.82-1.384 26.98-4.152 8.17-2.768 15.16-6.92 20.97-12.455 5.81-5.536 10.24-12.317 13.29-20.344l81.79 5.397c-4.16 19.652-12.67 36.813-25.54 51.482-12.73 14.531-29.2 25.879-49.4 34.045-20.07 8.026-43.25 12.04-69.55 12.04Zm348.13 0c-32.66 0-60.75-6.92-84.28-20.759-23.39-13.978-41.38-33.353-53.97-58.125-12.46-24.772-18.69-53.281-18.69-85.526 0-32.661 6.3-61.308 18.89-85.942 12.74-24.772 30.8-44.077 54.18-57.917 23.39-13.977 51.21-20.966 83.45-20.966 27.82 0 52.18 5.051 73.08 15.154 20.89 10.102 37.43 24.288 49.61 42.555 12.18 18.268 18.89 39.719 20.13 64.353h-83.45c-2.35-15.915-8.58-28.717-18.68-38.404-9.96-9.826-23.04-14.739-39.23-14.739-13.7 0-25.67 3.737-35.92 11.21-10.1 7.335-17.99 18.06-23.66 32.176-5.67 14.116-8.51 31.207-8.51 51.274 0 20.344 2.77 37.643 8.3 51.897 5.68 14.255 13.63 25.119 23.87 32.592 10.25 7.473 22.22 11.209 35.92 11.209 10.1 0 19.16-2.075 27.19-6.227 8.17-4.152 14.88-10.172 20.14-18.06 5.39-8.027 8.92-17.645 10.58-28.855h83.45c-1.38 24.357-8.02 45.808-19.92 64.352-11.77 18.406-28.03 32.799-48.79 43.179-20.76 10.379-45.32 15.569-73.69 15.569Zm368.62-325.083v66.428h-192.02v-66.428h192.02Zm-148.42-76.393h88.43v297.266c0 8.166 1.25 14.532 3.74 19.099 2.49 4.428 5.95 7.542 10.38 9.341 4.56 1.799 9.82 2.699 15.77 2.699 4.16 0 8.31-.346 12.46-1.038 4.15-.831 7.33-1.453 9.55-1.869l13.91 65.806c-4.43 1.384-10.66 2.975-18.69 4.774-8.02 1.938-17.78 3.114-29.27 3.529-21.31.831-39.99-2.006-56.05-8.511-15.91-6.504-28.3-16.607-37.15-30.308-8.86-13.7-13.22-30.999-13.08-51.897V54.753Zm467.33 167.316-80.96 4.982c-1.38-6.919-4.36-13.147-8.92-18.683-4.57-5.674-10.59-10.171-18.06-13.493-7.34-3.46-16.13-5.189-26.37-5.189-13.7 0-25.26 2.906-34.67 8.718-9.41 5.674-14.11 13.286-14.11 22.835 0 7.611 3.04 14.047 9.13 19.306 6.09 5.259 16.54 9.479 31.35 12.662l57.71 11.625c31 6.366 54.11 16.607 69.33 30.723 15.23 14.116 22.84 32.661 22.84 55.634 0 20.897-6.16 39.234-18.48 55.011-12.18 15.777-28.92 28.094-50.24 36.951-21.17 8.718-45.6 13.078-73.27 13.078-42.21 0-75.84-8.788-100.89-26.364-24.91-17.714-39.51-41.794-43.8-72.241l86.98-4.567c2.63 12.871 8.99 22.697 19.09 29.478 10.11 6.643 23.05 9.964 38.82 9.964 15.5 0 27.96-2.975 37.37-8.926 9.55-6.089 14.39-13.909 14.53-23.458-.14-8.026-3.53-14.6-10.17-19.721-6.64-5.258-16.88-9.272-30.72-12.04l-55.22-11.002c-31.14-6.227-54.32-17.022-69.54-32.384-15.09-15.361-22.63-34.944-22.63-58.747 0-20.482 5.53-38.127 16.61-52.935 11.21-14.808 26.91-26.225 47.12-34.252 20.34-8.027 44.15-12.04 71.41-12.04 40.27 0 71.96 8.511 95.07 25.533 23.25 17.022 36.82 40.203 40.69 69.542Z" fill="#CDCDCD" fill-opacity=".45"/></svg>

<svg width="2309" height="570" viewBox="0 0 2309 570" fill="none" xmlns="http://www.w3.org/2000/svg">
<path d="M0.950679 450V24.8596H168.682C200.927 24.8596 228.398 31.018 251.094 43.3349C273.791 55.5134 291.09 72.4665 302.991 94.194C315.031 115.783 321.052 140.694 321.052 168.926C321.052 197.158 314.962 222.068 302.784 243.657C290.605 265.247 272.96 282.061 249.849 294.101C226.876 306.141 199.059 312.162 166.398 312.162H59.4905V240.128H151.867C169.166 240.128 183.421 237.153 194.63 231.202C205.979 225.113 214.42 216.74 219.956 206.084C225.63 195.289 228.467 182.903 228.467 168.926C228.467 154.81 225.63 142.493 219.956 131.975C214.42 121.319 205.979 113.085 194.63 107.272C183.282 101.321 168.889 98.3458 151.452 98.3458H90.8363V450H0.950679ZM377.775 450V131.145H463.509V186.778H466.83C472.643 166.988 482.399 152.042 496.1 141.939C509.801 131.698 525.578 126.578 543.43 126.578C547.859 126.578 552.633 126.855 557.754 127.408C562.874 127.962 567.372 128.723 571.247 129.692V208.16C567.095 206.914 561.352 205.807 554.017 204.838C546.682 203.87 539.97 203.385 533.881 203.385C520.872 203.385 509.247 206.222 499.006 211.896C488.904 217.432 480.877 225.182 474.926 235.146C469.114 245.111 466.207 256.597 466.207 269.606V450H377.775ZM746.192 456.228C713.947 456.228 686.061 449.377 662.534 435.676C639.146 421.837 621.086 402.601 608.353 377.967C595.621 353.195 589.255 324.478 589.255 291.818C589.255 258.881 595.621 230.095 608.353 205.461C621.086 180.689 639.146 161.453 662.534 147.752C686.061 133.913 713.947 126.993 746.192 126.993C778.437 126.993 806.254 133.913 829.642 147.752C853.169 161.453 871.298 180.689 884.03 205.461C896.762 230.095 903.129 258.881 903.129 291.818C903.129 324.478 896.762 353.195 884.03 377.967C871.298 402.601 853.169 421.837 829.642 435.676C806.254 449.377 778.437 456.228 746.192 456.228ZM746.607 387.724C761.277 387.724 773.524 383.572 783.35 375.268C793.176 366.826 800.58 355.34 805.562 340.809C810.683 326.277 813.243 309.74 813.243 291.195C813.243 272.651 810.683 256.113 805.562 241.582C800.58 227.05 793.176 215.564 783.35 207.122C773.524 198.68 761.277 194.459 746.607 194.459C731.799 194.459 719.344 198.68 709.241 207.122C699.277 215.564 691.735 227.05 686.614 241.582C681.632 256.113 679.141 272.651 679.141 291.195C679.141 309.74 681.632 326.277 686.614 340.809C691.735 355.34 699.277 366.826 709.241 375.268C719.344 383.572 731.799 387.724 746.607 387.724ZM960.63 131.145H1049.06V465.777C1049.06 490.41 1044.22 510.339 1034.53 525.562C1024.84 540.785 1010.94 551.926 992.807 558.984C974.816 566.042 953.296 569.571 928.247 569.571C925.202 569.571 922.296 569.502 919.528 569.363C916.622 569.363 913.577 569.294 910.394 569.156V500.029C912.747 500.167 914.823 500.236 916.622 500.236C918.282 500.375 920.082 500.444 922.019 500.444C936.273 500.444 946.238 497.399 951.912 491.31C957.724 485.359 960.63 476.364 960.63 464.324V131.145ZM1004.64 90.0422C991.63 90.0422 980.42 85.6829 971.01 76.9642C961.599 68.1071 956.894 57.5201 956.894 45.2032C956.894 33.0247 961.599 22.5761 971.01 13.8574C980.42 5.00032 991.63 0.571769 1004.64 0.571769C1017.92 0.571769 1029.2 5.00032 1038.48 13.8574C1047.89 22.5761 1052.59 33.0247 1052.59 45.2032C1052.59 57.5201 1047.89 68.1071 1038.48 76.9642C1029.2 85.6829 1017.92 90.0422 1004.64 90.0422ZM1265.21 456.228C1232.42 456.228 1204.18 449.585 1180.52 436.299C1156.99 422.875 1138.86 403.915 1126.13 379.42C1113.4 354.786 1107.03 325.655 1107.03 292.025C1107.03 259.227 1113.4 230.441 1126.13 205.669C1138.86 180.897 1156.78 161.591 1179.9 147.752C1203.15 133.913 1230.41 126.993 1261.69 126.993C1282.72 126.993 1302.3 130.384 1320.43 137.165C1338.7 143.808 1354.62 153.841 1368.18 167.265C1381.88 180.689 1392.53 197.573 1400.15 217.917C1407.76 238.122 1411.56 261.787 1411.56 288.912V313.199H1142.32V258.396H1328.32C1328.32 245.664 1325.55 234.385 1320.02 224.559C1314.48 214.733 1306.8 207.053 1296.98 201.517C1287.29 195.843 1276.01 193.006 1263.14 193.006C1249.71 193.006 1237.81 196.12 1227.43 202.347C1217.19 208.437 1209.17 216.671 1203.35 227.05C1197.54 237.291 1194.56 248.709 1194.43 261.302V313.407C1194.43 329.184 1197.33 342.815 1203.15 354.302C1209.1 365.788 1217.47 374.646 1228.26 380.873C1239.06 387.101 1251.86 390.215 1266.67 390.215C1276.49 390.215 1285.49 388.831 1293.65 386.063C1301.82 383.295 1308.81 379.143 1314.62 373.608C1320.43 368.072 1324.86 361.291 1327.91 353.264L1409.7 358.661C1405.54 378.313 1397.03 395.474 1384.16 410.143C1371.43 424.674 1354.96 436.022 1334.76 444.188C1314.69 452.214 1291.51 456.228 1265.21 456.228ZM1613.34 456.228C1580.68 456.228 1552.59 449.308 1529.06 435.469C1505.67 421.491 1487.68 402.116 1475.09 377.344C1462.63 352.572 1456.4 324.063 1456.4 291.818C1456.4 259.157 1462.7 230.51 1475.29 205.876C1488.03 181.104 1506.09 161.799 1529.47 147.959C1552.86 133.982 1580.68 126.993 1612.92 126.993C1640.74 126.993 1665.1 132.044 1686 142.147C1706.89 152.249 1723.43 166.435 1735.61 184.702C1747.79 202.97 1754.5 224.421 1755.74 249.055H1672.29C1669.94 233.14 1663.71 220.338 1653.61 210.651C1643.65 200.825 1630.57 195.912 1614.38 195.912C1600.68 195.912 1588.71 199.649 1578.46 207.122C1568.36 214.457 1560.47 225.182 1554.8 239.298C1549.13 253.414 1546.29 270.505 1546.29 290.572C1546.29 310.916 1549.06 328.215 1554.59 342.469C1560.27 356.724 1568.22 367.588 1578.46 375.061C1588.71 382.534 1600.68 386.27 1614.38 386.27C1624.48 386.27 1633.54 384.195 1641.57 380.043C1649.74 375.891 1656.45 369.871 1661.71 361.983C1667.1 353.956 1670.63 344.338 1672.29 333.128H1755.74C1754.36 357.485 1747.72 378.936 1735.82 397.48C1724.05 415.886 1707.79 430.279 1687.03 440.659C1666.27 451.038 1641.71 456.228 1613.34 456.228ZM1981.96 131.145V197.573H1789.94V131.145H1981.96ZM1833.54 54.7523H1921.97V352.018C1921.97 360.184 1923.22 366.55 1925.71 371.117C1928.2 375.545 1931.66 378.659 1936.09 380.458C1940.65 382.257 1945.91 383.157 1951.86 383.157C1956.02 383.157 1960.17 382.811 1964.32 382.119C1968.47 381.288 1971.65 380.666 1973.87 380.25L1987.78 446.056C1983.35 447.44 1977.12 449.031 1969.09 450.83C1961.07 452.768 1951.31 453.944 1939.82 454.359C1918.51 455.19 1899.83 452.353 1883.77 445.848C1867.86 439.344 1855.47 429.241 1846.62 415.54C1837.76 401.84 1833.4 384.541 1833.54 363.643V54.7523ZM2300.87 222.068L2219.91 227.05C2218.53 220.131 2215.55 213.903 2210.99 208.367C2206.42 202.693 2200.4 198.196 2192.93 194.874C2185.59 191.414 2176.8 189.685 2166.56 189.685C2152.86 189.685 2141.3 192.591 2131.89 198.403C2122.48 204.077 2117.78 211.689 2117.78 221.238C2117.78 228.849 2120.82 235.285 2126.91 240.544C2133 245.803 2143.45 250.023 2158.26 253.206L2215.97 264.831C2246.97 271.197 2270.08 281.438 2285.3 295.554C2300.53 309.67 2308.14 328.215 2308.14 351.188C2308.14 372.085 2301.98 390.422 2289.66 406.199C2277.48 421.976 2260.74 434.293 2239.42 443.15C2218.25 451.868 2193.82 456.228 2166.15 456.228C2123.94 456.228 2090.31 447.44 2065.26 429.864C2040.35 412.15 2025.75 388.07 2021.46 357.623L2108.44 353.056C2111.07 365.927 2117.43 375.753 2127.53 382.534C2137.64 389.177 2150.58 392.498 2166.35 392.498C2181.85 392.498 2194.31 389.523 2203.72 383.572C2213.27 377.483 2218.11 369.663 2218.25 360.114C2218.11 352.088 2214.72 345.514 2208.08 340.393C2201.44 335.135 2191.2 331.121 2177.36 328.353L2122.14 317.351C2091 311.124 2067.82 300.329 2052.6 284.967C2037.51 269.606 2029.97 250.023 2029.97 226.22C2029.97 205.738 2035.5 188.093 2046.58 173.285C2057.79 158.477 2073.49 147.06 2093.7 139.033C2114.04 131.006 2137.85 126.993 2165.11 126.993C2205.38 126.993 2237.07 135.504 2260.18 152.526C2283.43 169.548 2297 192.729 2300.87 222.068Z" fill="#E4E4E4" fill-opacity="0.45"/>
</svg>
